!!!!SEGMENT: pl-cz--i-155--002-001_anonim--partita-es-allegro.krn
!!!id: 18xx:2498
!!!COM: Anonim
!!!COM-rism: pe30004985
!!!CDT:
!!!CNT:
!!!OTL: Partita Es - Allegro
!!!OMD: Allegro
!!!PDT:
!!!SMS-siglum: PL-CZ
!!!SMS-shelfmark: I-155
!!!NIFC-rismID: 1001012509
!!!URL-scan: http://repozytorium.nifc.pl/skany/pl-cz-nut--i-155
!!!ONB-nifc: UWAGA: Parthia 2 (002), części: 1. Allegro, 2. Adagio, 3. Menuetto, 4. Rondo.
!!!SMS-variant:
!!!SMS-altvar:
**kern	**dynam	**kern	**dynam	**kern	**dynam	**kern	**dynam	**kern	**dynam
*part5	*part5	*part4	*part4	*part3	*part3	*part2	*part2	*part1	*part1
*staff5	*	*staff4	*	*staff3	*	*staff2	*	*staff1	*
*I"Corno Secondo	*	*I"Corno Primo:	*	*I"Fagotto	*	*I"Clarinetto Secondo	*	*I"Clarinetto Primo	*
*I'cor 2	*	*I'cor 1	*	*I'fg	*	*I'cl 2	*	*I'cl 1	*
*clefG2	*	*clefG2	*	*clefF4	*	*clefG2	*	*clefG2	*
*ITrd5c9	*	*ITrd5c9	*	*	*	*ITrd1c2	*	*ITrd1c2	*
*k[b-e-a-]	*	*k[b-e-a-]	*	*k[b-e-a-]	*	*k[b-e-a-]	*	*k[b-e-a-]	*
*M2/2	*	*M2/2	*	*M2/2	*	*M2/2	*	*M2/2	*
*met(c|)	*	*met(c|)	*	*met(c|)	*	*met(c|)	*	*met(c|)	*
*>[A,A,B,B]	*	*	*	*	*	*	*	*	*
=1	=1	=1	=1	=1	=1	=1	=1	=1	=1
*>A	*	*	*	*	*	*	*	*	*
*	*	*2\right	*	*	*	*	*	*2\right	*
!LO:TX:a:t=in Dis	!	!	!	!	!	!LO:TX:a:t=Allegro	!	!LO:TX:a:t=Allegro	!
!LO:TX:a:t=Parthia 2	!	!	!	!LO:TX:a:t=Parthia 2.do	!	!LO:TX:a:t=Parthia 2do	!	!LO:TX:a:t=Parthia 2	!LO:DY:t=fo
2G/	.	2e-\	.	4EE-/	.	2g/	.	2ee-\	f
.	.	.	.	4E-\	.	.	.	.	.
2G/	.	2e-\	.	4BB-/	.	2g/	.	2ee-\	.
.	.	.	.	4GG/	.	.	.	.	.
=2	=2	=2	=2	=2	=2	=2	=2	=2	=2
2G/	.	2e-\	.	2EE-/	.	2g/	.	4ee-\	.
.	.	.	.	.	.	.	.	4r	.
2r	.	2r	.	2r	.	4r	.	4r	.
.	.	.	.	.	.	8gg\L	.	(8bb-\L	.
.	.	.	.	.	.	8ff\J	.	8aa-\J)	.
=3	=3	=3	=3	=3	=3	=3	=3	=3	=3
0r	.	1r	.	4r	.	8ff\L	.	4gg\	.
.	.	.	.	.	.	8ee-\J	.	.	.
*	*	*	*	*	*	*2\right	*	*	*
.	.	.	.	4E-\	.	2ee-\	.	2gg\	.
.	.	.	.	4EE-/	.	.	.	.	.
.	.	.	.	4r	.	8aa-\L	.	8ccc\L	.
.	.	.	.	.	.	8gg\J	.	8bb-\J	.
=4	=4	=4	=4	=4	=4	=4	=4	=4	=4
.	.	1r	.	4r	.	8gg\L	.	8bb-\L	.
.	.	.	.	.	.	8ff\J	.	8aa-\J	.
.	.	.	.	4B-\	.	2ff\	.	2aa-\	.
.	.	.	.	4BB-/	.	.	.	.	.
!	!	!	!	!	!	!LO:LB:g=original	!	!	!
.	.	.	.	4r	.	8dd\L	.	8ff\L	.
.	.	.	.	.	.	8ee-\J	.	8gg\J	.
!	!	!	!	!LO:LB:g=original	!	!	!	!LO:LB:g=original	!
=5	=5	=5	=5	=5	=5	=5	=5	=5	=5
[1B-/	.	[<1f/	.	1D\	.	8ff\L	.	8aa-\L	.
.	.	.	.	.	.	8ee-\	.	8gg\	.
.	.	.	.	.	.	8dd\	.	8ff\	.
.	.	.	.	.	.	8cc\J	.	8ee-\J	.
.	.	.	.	.	.	8b-/L	.	8dd\L	.
.	.	.	.	.	.	8a-/	.	8cc\	.
.	.	.	.	.	.	8g/	.	8b-\	.
.	.	.	.	.	.	8f/J	.	8a-\J	.
=6	=6	=6	=6	=6	=6	=6	=6	=6	=6
*	*	*	*	*2\right	*	*	*	*	*
2B-/]	.	2f\]	.	2D\	.	(2f/	.	(2a-\	.
4e-\	.	4g\	.	4E-\	.	4e-/)	.	4g\)	.
4r	.	4r	.	4r	.	8gg\L	.	8bb-\L	.
.	.	.	.	.	.	8ff\J	.	8aa-\J	.
=7	=7	=7	=7	=7	=7	=7	=7	=7	=7
1r	.	1r	.	4r	.	8ff\L	.	4gg\	.
.	.	.	.	.	.	8ee-\J	.	.	.
.	.	.	.	4E-\	.	2ee-\	.	2gg\	.
.	.	.	.	4EE-/	.	.	.	.	.
.	.	.	.	4r	.	8aa-\L	.	8ccc\L	.
.	.	.	.	.	.	8gg\J	.	8bb-\J	.
!	!	!LO:LB:g=original	!	!	!	!	!	!	!
=8	=8	=8	=8	=8	=8	=8	=8	=8	=8
2r	.	2r	.	4r	.	8gg\L	.	8bb-\L	.
.	.	.	.	.	.	8ff\J	.	8aa-\J	.
.	.	.	.	4B-\	.	2ff\	.	2aa-\	.
!	!	!LO:TX:a:t=Solo	!	!	!	!	!	!	!
4r	.	4r	.	4BB-/	.	.	.	.	.
4E-/	.	4g\	.	4r	.	4ee-\	.	4gg\	.
!LO:LB:g=original	!	!	!	!	!	!	!	!	!
=9	=9	=9	=9	=9	=9	=9	=9	=9	=9
8BB-/L	.	4f\	.	2BB-/	.	4dd\	.	4ff\	.
8B-/	.	.	.	.	.	.	.	.	.
8AX/	.	2f\	.	.	.	4r	p	4r	.
8B-/J	.	.	.	.	.	.	.	.	.
!	!	!	!	!LO:N:vis=2	!	!	!	!	!
4BB-/	.	.	.	4r	.	4r	.	4r	p
4B-/	.	4a-\	.	4B-\	.	4d/	.	4f/	.
!	!	!	!	!	!	!	!	!LO:LB:g=original	!
=10	=10	=10	=10	=10	=10	=10	=10	=10	=10
!	!	!LO:TUP:a:problem:klamra łukowa	!	!	!	!	!	!	!
4E-/	.	12g\L	.	2E-\	.	4B-/	.	2g/	.
.	.	12e-\	.	.	.	.	.	.	.
.	.	12g\J	.	.	.	.	.	.	.
!	!	!LO:TUP:a:problem:klamra łukowa	!	!	!	!	!	!	!
4e-\	.	12b-\L	.	.	.	4r	.	.	.
.	.	12g\	.	.	.	.	.	.	.
.	.	12b-\J	.	.	.	.	.	.	.
8g\L	.	8ee-\L	.	4r	.	4r	.	4r	.
8g\	.	8b-\	.	.	.	.	.	.	.
8f\	.	8a-\	.	4E-\	.	4B-/	.	4g/	.
8e-\J	.	8g\J	.	.	.	.	.	.	.
!	!	!	!	!	!	!LO:LB:g=original	!	!	!
=11	=11	=11	=11	=11	=11	=11	=11	=11	=11
8BB-/L	.	4f\	.	2D\	.	4B-/	.	2f/	.
8B-/	.	.	.	.	.	.	.	.	.
8AX/	.	2f\	.	.	.	4r	.	.	.
8B-/J	.	.	.	.	.	.	.	.	.
4BB-/	.	.	.	4r	.	4r	.	4r	.
4B-/	.	4a-\	.	4D\	.	4B-/	.	4f/	.
=12	=12	=12	=12	=12	=12	=12	=12	=12	=12
!	!	!LO:TUP:a:problem:klamra łukowa	!	!	!	!	!	!	!
4E-/	.	12g\L	.	2E-\	.	4B-/	.	2g/	.
.	.	12e-\	.	.	.	.	.	.	.
.	.	12g\J	.	.	.	.	.	.	.
!	!	!LO:TUP:a:problem:klamra łukowa	!	!	!	!	!	!	!
4e-\	.	12b-\L	.	.	.	4r	.	.	.
.	.	12g\	.	.	.	.	.	.	.
.	.	12b-\J	.	.	.	.	.	.	.
8g\L	.	8ee-\L	.	4r	.	4r	.	4r	.
8g\	.	8b-\	.	.	.	.	.	.	.
8f\	.	8a-\	.	4E-\	.	4B-/	.	4g/	.
8e-\J	.	8g\J	.	.	.	.	.	.	.
!	!	!LO:LB:g=original	!	!LO:LB:g=original	!	!	!	!	!
=13	=13	=13	=13	=13	=13	=13	=13	=13	=13
!	!	!LO:SIC:v:s=cc	!	!	!	!	!LO:DY:rj	!	!
4B-/	.	4f\	.	4BB-/	.	4e-/	f	4g/	.
8B-/L	.	8b-\L	.	8B-\L	.	8b-\L	.	8bb-\L	.
8B-/J	.	8b-\J	.	8B-\J	.	8b-\J	.	8bb-\J	.
4G/	.	4g\	.	4G\	.	4g/	.	4gg\	.
4E-/	.	4e-\	.	4E-\	.	4e-/	.	4ee-\	.
!LO:LB:g=original	!	!	!	!	!	!	!	!	!
=14	=14	=14	=14	=14	=14	=14	=14	=14	=14
4BB-/	.	4f\	.	8BB-\L	.	4d/	.	4dd\	.
.	.	.	.	8D\	.	.	.	.	.
4BB-/	.	4f\	.	8F\	.	4dd\	.	4bb-\	.
.	.	.	.	8B-\J	.	.	.	.	.
4BB-/	.	4f\	.	4BB-/	.	4dd\	.	4bb-\	.
4r	.	4r	.	4r	.	4r	.	4r	.
=15	=15	=15	=15	=15	=15	=15	=15	=15	=15
4B-/	.	4f\	.	4B-\	.	4dd\	.	4ff\	.
4r	.	4r	.	4r	.	8dd\L	.	(8ff\L	.
.	.	.	.	.	.	8ee-\J	.	8gg\J)	.
4f\	.	4f\	.	4F\	.	4cc\	.	4ee-\	.
4r	.	4r	.	4r	.	8cc\L	.	(8ee-\L	.
.	.	.	.	.	.	8dd\J	.	8ff\J)	.
!	!	!	!	!	!	!	!	!LO:LB:g=original	!
=16	=16	=16	=16	=16	=16	=16	=16	=16	=16
4B-/	.	4f\	.	4BB-/	.	4b-\	.	4.dd\	.
4r	.	4r	.	4r	.	4r	.	.	.
.	.	.	.	.	.	.	.	8bb-\	.
2r	.	2r	.	2r	.	2r	.	8bb-\L	.
.	.	.	.	.	.	.	.	8aa\	.
.	.	.	.	.	.	.	.	8gg\	.
.	.	.	.	.	.	.	.	8ff\J	.
!	!	!	!	!	!	!LO:LB:g=original	!	!	!
=17	=17	=17	=17	=17	=17	=17	=17	=17	=17
4B-/	.	4f\	.	4B-\	.	4dd\	.	4ff\	.
4r	.	4r	.	4r	.	8dd\L	.	8ff\L	.
.	.	.	.	.	.	8ee-\J	.	8gg\J	.
4f\	.	4f\	.	4F\	.	4cc\	.	4ee-\	.
4r	.	4r	.	4r	.	8cc\L	.	8ee-\L	.
.	.	.	.	.	.	8dd\J	.	8ff\J	.
=18	=18	=18	=18	=18	=18	=18	=18	=18	=18
4B-/	.	4f\	.	4BB-/	.	4b-\	.	4.dd\	.
4r	.	4r	.	4r	.	4r	.	.	.
.	.	.	.	.	.	.	.	8bb-\	.
2r	.	2r	.	2r	.	2r	.	8bb-\L	.
.	.	.	.	.	.	.	.	8aa\	.
.	.	.	.	.	.	.	.	8gg\	.
.	.	.	.	.	.	.	.	8ff\J	.
!	!	!LO:LB:g=original	!	!	!	!	!	!	!
=19	=19	=19	=19	=19	=19	=19	=19	=19	=19
4B-/	.	4f\	.	4B-\	.	4dd\	.	4ff\	.
4r	.	4r	.	4r	.	8dd\L	.	(8ff\L	.
.	.	.	.	.	.	8ee-\J	.	8gg\J)	.
4f\	.	4f\	.	4An\	.	4cc\	.	4ee-\	.
4r	.	4r	.	4r	.	8cc\L	.	8ee-\L	.
.	.	.	.	.	.	8dd\J	.	8ff\J	.
!	!	!	!	!LO:LB:g=original	!	!	!	!	!
=20	=20	=20	=20	=20	=20	=20	=20	=20	=20
4B-/	.	4f\	.	4B-\	.	4b-\	.	4dd\	.
4r	.	4r	.	4r	.	8b-\L	.	(8dd\L	.
.	.	.	.	.	.	8cc\J	.	8ee-\J)	.
!	!	!	!	!	!	!	!	!LO:LB:g=original	!
4f\	.	4f\	.	4F\	.	4a\	.	4cc\	.
4r	.	4r	.	4r	.	8a\L	.	(8cc\L	.
.	.	.	.	.	.	8b-\J	.	8dd\J)	.
!LO:LB:g=original	!	!	!	!	!	!	!	!	!
=21	=21	=21	=21	=21	=21	=21	=21	=21	=21
2B-/	.	2f\	.	4BB-/	.	4.b-\	.	4.dd\	.
.	.	.	.	4B-\	.	.	.	.	.
.	.	.	.	.	.	16cc\LL	.	16ee-\LL	.
.	.	.	.	.	.	16dd\JJ	.	16ff\JJ	.
4r	.	4r	.	4A-\	.	4cc\	.	4ee-\	.
4B-/	.	4f\	.	4B-\	.	4b-\	.	4dd\	.
=22	=22	=22	=22	=22	=22	=22	=22	=22	=22
4f\	.	4f\	.	4F\	.	8a/L	.	4cc\	.
.	.	.	.	.	.	8f/	.	.	.
4r	.	4r	.	4r	.	8f/	.	4r	.
.	.	.	.	.	.	8f/J	.	.	.
!	!	!	!	!	!	!LO:LB:g=original	!	!	!
*	*	*	*	*	*	*tremolo	*	*	*
2r	.	2r	.	4r	.	8f/L	.	4r	.
.	.	.	.	.	.	8f/	.	.	.
.	.	.	.	4B-\	.	8f/	.	8dd\	p
.	.	.	.	.	.	8f/J	.	8r	.
=23	=23	=23	=23	=23	=23	=23	=23	=23	=23
!	!	!LO:TX:a:t=1 pauson	!	!	!	!	!	!	!
!	!	!	!	!	!	!	!LO:DY:rj:t=fp&colon;	!	!
1r	.	1r	.	8An\	p	8f/L	fp	8cc\	.
.	.	.	.	8r	.	8f/	.	8r	.
.	.	.	.	8B-\	.	8f/	.	8dd\	.
.	.	.	.	8r	.	8f/J	.	8r	.
.	.	.	.	8c\	.	8f/L	.	8ee-\	.
.	.	.	.	8r	.	8f/	.	8r	.
.	.	.	.	8A\	.	8f/	.	8cc\	.
.	.	.	.	8r	.	8f/J	.	8r	.
=24	=24	=24	=24	=24	=24	=24	=24	=24	=24
!	!	!	!LO:DY:t=fo	!	!LO:DY:t=fo	!	!	!	!LO:DY:t=fo
8BB-/	.	8f\	f	8d\	f	8f/L	.	8ff\	f
8r	.	8r	.	8r	.	8f/	.	8r	.
8BB-/	.	8f\	.	8B-\	.	8f/	.	8dd\	.
8r	.	8r	.	8r	.	8f/J	.	8r	.
2r	.	2r	.	4r	.	8f/L	.	4r	.
.	.	.	.	.	.	8f/	.	.	.
.	.	.	.	8B-\	p	8f/	.	8dd\	p
.	.	.	.	8r	.	8f/J	.	8r	.
!	!	!	!	!LO:LB:g=original	!	!	!	!	!
=25	=25	=25	=25	=25	=25	=25	=25	=25	=25
!	!	!	!	!	!	!	!LO:DY:rj:t=fp&colon;	!	!
1r	.	1r	.	8An\	.	8f/L	fp	8cc\	.
.	.	.	.	8r	.	8f/	.	8r	.
.	.	.	.	8B-\	.	8f/	.	8dd\	.
.	.	.	.	8r	.	8f/J	.	8r	.
.	.	.	.	8c\	.	8f/L	.	8ee-\	.
.	.	.	.	8r	.	8f/	.	8r	.
.	.	.	.	8A\	.	8f/	.	8cc\	.
.	.	.	.	8r	.	8f/J	.	8r	.
=26	=26	=26	=26	=26	=26	=26	=26	=26	=26
!	!	!	!	!	!LO:DY:t=fo	!	!	!	!
8BB-/	.	8f\	.	8d\	f	8f/L	.	8ff\	f
8r	.	8r	.	8r	.	8f/	.	8r	.
8BB-/	.	8f\	.	8B-\	.	8f/	.	8dd\	.
8r	.	8r	.	8r	.	8f/J	.	8r	.
2r	.	2r	.	4r	.	8f/L	.	4r	.
.	.	.	.	.	.	8f/	.	.	.
.	.	.	.	8B-\	p	8f/	.	8dd\	p
.	.	.	.	8r	.	8f/J	.	8r	.
!	!	!LO:LB:g=original	!	!	!	!	!	!	!
=27	=27	=27	=27	=27	=27	=27	=27	=27	=27
!	!	!LO:TX:a:t=1	!	!	!	!	!LO:DY:rj:t=fp&colon;	!	!
1r	.	1r	.	8An\	.	8f/L	fp	8cc\	.
.	.	.	.	8r	.	8f/	.	8r	.
.	.	.	.	8B-\	.	8f/	.	8dd\	.
.	.	.	.	8r	.	8f/J	.	8r	.
.	.	.	.	8c\	.	8f/L	.	8ee-\	.
.	.	.	.	8r	.	8f/	.	8r	.
.	.	.	.	8A\	.	8f/	.	8cc\	.
.	.	.	.	8r	.	8f/J	.	8r	.
=28	=28	=28	=28	=28	=28	=28	=28	=28	=28
*	*	*	*	*tremolo	*	*	*	*	*
!	!LO:DY:t=for	!	!	!	!LO:DY:t=f&colon;	!	!	!	!
1B-/	f	1f/	.	8B-\L	f	8d/L	.	2ff\	.
.	.	.	.	8F\	.	8d/	.	.	.
.	.	.	.	8B-\	.	8d/	.	.	.
.	.	.	.	8F\J	.	8d/J	.	.	.
.	.	.	.	8B-\L	.	8d/L	.	8bb-\L	.
.	.	.	.	8F\	.	8d/	.	8aa\	.
.	.	.	.	8B-\	.	8d/	.	8gg\	.
.	.	.	.	8F\J	.	8d/J	.	8ff\J	.
!	!	!	!	!LO:LB:g=original	!	!	!	!LO:LB:g=original	!
=29	=29	=29	=29	=29	=29	=29	=29	=29	=29
1f/	.	1f/	.	8An\L	.	8c/L	.	8ff\L	.
.	.	.	.	8F\	.	8c/	.	8ee-\J	.
.	.	.	.	8A\	.	8c/	.	2ee-\	.
.	.	.	.	8F\J	.	8c/J	.	.	.
.	.	.	.	8A\L	.	8c/L	.	.	.
.	.	.	.	8F\	.	8c/	.	.	.
.	.	.	.	8A\	.	8c/	.	8dd\L	.
.	.	.	.	8F\J	.	8c/J	.	8cc\J	.
!LO:LB:g=original	!	!	!	!	!	!	!	!	!
=30	=30	=30	=30	=30	=30	=30	=30	=30	=30
1B-/	.	1f/	.	8B-\L	.	8d/L	.	8dd\L	.
.	.	.	.	8F\	.	8d/	.	8b-\	.
.	.	.	.	8B-\	.	8d/	.	8dd\	.
.	.	.	.	8F\J	.	8d/J	.	8ff\J	.
.	.	.	.	8B-\L	.	8d/L	.	8bb-\L	.
.	.	.	.	8F\	.	8d/	.	8aa\	.
.	.	.	.	8B-\	.	8d/	.	8gg\	.
.	.	.	.	8F\J	.	8d/J	.	8ff\J	.
!	!	!	!	!	!	!LO:LB:g=original	!	!	!
=31	=31	=31	=31	=31	=31	=31	=31	=31	=31
1f/	.	1f/	.	8An\L	.	8c/L	.	8ff\L	.
.	.	.	.	8F\	.	8c/	.	8ee-\J	.
.	.	.	.	8A\	.	8c/	.	2ee-\	.
.	.	.	.	8F\J	.	8c/J	.	.	.
.	.	.	.	8A\L	.	8c/L	.	.	.
.	.	.	.	8F\	.	8c/	.	.	.
.	.	.	.	8A\	.	8c/	.	8dd\L	.
.	.	.	.	8F\J	.	8c/J	.	8cc\J	.
*	*	*	*	*Xtremolo	*	*Xtremolo	*	*	*
=32	=32	=32	=32	=32	=32	=32	=32	=32	=32
2B-/	.	4f\	.	4B-\	.	4d/	.	8b-\L	.
.	.	.	.	.	.	.	.	8cc\	.
.	.	4r	.	4r	.	4r	.	8dd\	.
.	.	.	.	.	.	.	.	8ee-\J	.
2r	.	2r	.	2r	.	2r	.	8ff\L	.
.	.	.	.	.	.	.	.	8gg\	.
.	.	.	.	.	.	.	.	8aa\	.
.	.	.	.	.	.	.	.	8bb-\J	.
=33	=33	=33	=33	=33	=33	=33	=33	=33	=33
*	*	*	*	*tremolo	*	*tremolo	*	*	*
2B-/	.	2f\	.	8D\L	.	8b-\L	.	2ff\	.
.	.	.	.	8D\	.	8b-\	.	.	.
.	.	.	.	8D\	.	8b-\	.	.	.
.	.	.	.	8D\J	.	8b-\J	.	.	.
*2\right	*	*	*	*	*	*	*	*	*
2e-\	.	2g\	.	8E-\L	.	8b-\L	.	8gg\L	.
.	.	.	.	8E-\	.	8b-\	.	8ee-\	.
.	.	.	.	8E-\	.	8b-\	.	8dd\	.
.	.	.	.	8E-\J	.	8b-\J	.	8cc\J	.
*	*	*	*	*	*	*Xtremolo	*	*	*
!	!	!	!	!	!	!	!	!LO:LB:g=original	!
=34	=34	=34	=34	=34	=34	=34	=34	=34	=34
2d\	.	1f/	.	8F\L	.	8b-/L	.	2b-\	.
.	.	.	.	8F\	.	8f/	.	.	.
.	.	.	.	8F\	.	8d/	.	.	.
.	.	.	.	8F\J	.	8f/J	.	.	.
2f\	.	.	.	8FF/L	.	8e-/L	.	2cc\	.
.	.	.	.	8FF/	.	8f/	.	.	.
.	.	.	.	8FF/	.	8e-/	.	.	.
.	.	.	.	8FF/J	.	8f/J	.	.	.
*	*	*	*	*Xtremolo	*	*	*	*	*
=35	=35	=35	=35	=35	=35	=35	=35	=35	=35
4B-/	.	4f\	.	4BB-/	.	4d/	.	4b-\	.
4r	.	4r	.	4r	.	4r	.	4r	.
4BB-/	.	4f\	.	4B-\	.	4dd\	.	4bb-\	.
4BB-/	.	4f\	.	4B-\	.	4dd\	.	4bb-\	.
=36	=36	=36	=36	=36	=36	=36	=36	=36	=36
2BB-/	.	4f\	.	4BB-/	.	4dd\	.	4bb-\	.
.	.	4r	.	4r	.	4r	.	4r	.
!LO:TX:b:t=36	!	!LO:TX:b:t=36	!	!	!	!LO:TX:b:t=36	!	!LO:TX:b:t=36	!
2r	.	2r	.	2r	.	2r	.	2r	.
!	!	!LO:LB:g=original	!	!	!	!LO:LB:g=original	!	!	!
=37:|!|:	=37:|!|:	=37:|!|:	=37:|!|:	=37:|!|:	=37:|!|:	=37:|!|:	=37:|!|:	=37:|!|:	=37:|!|:
*>B	*	*	*	*	*	*	*	*	*
!	!	!	!	!LO:TX:t=P:problem:mixed beam	!	!	!	!	!
00r	.	00r	.	8BB-/L	.	2dd\	.	2ff\	.
.	.	.	.	8B-\	.	.	.	.	.
.	.	.	.	8An\	.	.	.	.	.
.	.	.	.	8B-\J	.	.	.	.	.
.	.	.	.	4BB-/	.	8b-\L	.	8dd\L	.
.	.	.	.	.	.	8dd\	.	8ff\	.
.	.	.	.	4r	.	8dd\	.	8bb-\	.
.	.	.	.	.	.	8ee-\J	.	8gg\J	.
=38	=38	=38	=38	=38	=38	=38	=38	=38	=38
!	!	!	!	!LO:TX:t=P:problem:mixed beam	!	!	!	!	!
.	.	.	.	8BB-/L	.	2dd\	.	2ff\	.
.	.	.	.	8B-\	.	.	.	.	.
.	.	.	.	8An\	.	.	.	.	.
.	.	.	.	8B-\J	.	.	.	.	.
.	.	.	.	4BB-/	.	8b-\L	.	8dd\L	.
.	.	.	.	.	.	8dd\	.	8ff\	.
.	.	.	.	4r	.	8dd\	.	8bb-\	.
.	.	.	.	.	.	8ee-\J	.	8gg\J	.
!	!	!	!	!	!	!	!	!LO:LB:g=original	!
=39	=39	=39	=39	=39	=39	=39	=39	=39	=39
.	.	.	.	4BB-/	.	4dd\	.	4ff\	.
.	.	.	.	4B-\	.	8b-\L	.	8dd\L	.
.	.	.	.	.	.	8dd\J	.	8ff\J	.
.	.	.	.	.	.	8qdd/	.	8qqff/	.
.	.	.	.	4F\	.	4cc\	.	4ee-\	.
.	.	.	.	4FF/	.	8b-\L	.	8ee-\L	.
.	.	.	.	.	.	8a\J	.	8cc\J	.
=40	=40	=40	=40	=40	=40	=40	=40	=40	=40
.	.	.	.	4BB-/	.	4b-\	.	8b-\L	.
.	.	.	.	.	.	.	.	8cc\	.
.	.	.	.	4r	.	4r	.	8dd\	.
.	.	.	.	.	.	.	.	8ee-\J	.
.	.	.	.	2r	.	8dd\L	.	8ff\L	.
.	.	.	.	.	.	8ee-\	.	8gg\	.
.	.	.	.	.	.	8ff\	.	8aa-X\	.
.	.	.	.	.	.	8dd\J	.	8ff\J	.
*clefF4	*	*	*	*	*	*	*	*	*
!LO:LB:g=original	!	!	!	!LO:LB:g=original	!	!	!	!	!
=41	=41	=41	=41	=41	=41	=41	=41	=41	=41
!	!	!	!	!LO:TX:b:t=Solo	!	!	!	!	!
8EEE-/L	.	2b-\	.	2g\	.	4ee-\	.	4ee-\	.
8EE-/	.	.	.	.	.	.	.	.	.
8DD/	.	.	.	.	.	4r	.	4r	.
8EE-/J	.	.	.	.	.	.	.	.	.
4EEE-/	.	8g\L	.	8e-\L	.	2r	.	2r	.
.	.	8ee-\	.	8g\	.	.	.	.	.
4r	.	8ee-\	.	8g\	.	.	.	.	.
.	.	8b-\J	.	8g\J	.	.	.	.	.
=42	=42	=42	=42	=42	=42	=42	=42	=42	=42
8EEE-/L	.	2b-\	.	2g\	.	0r	.	0r	.
8EE-/	.	.	.	.	.	.	.	.	.
8DD/	.	.	.	.	.	.	.	.	.
8EE-/J	.	.	.	.	.	.	.	.	.
4EEE-/	.	8g\L	.	8e-\L	.	.	.	.	.
.	.	8ee-\	.	8g\	.	.	.	.	.
4r	.	8ee-\	.	8g\	.	.	.	.	.
.	.	8b-\J	.	8g\J	.	.	.	.	.
=43	=43	=43	=43	=43	=43	=43	=43	=43	=43
4EEE-/	.	4b-\	.	4g\	.	.	.	.	.
4EE-/	.	8g\L	.	8e-\L	.	.	.	.	.
.	.	8b-\J	.	8g\J	.	.	.	.	.
.	.	8qb-/	.	8qqf/	.	.	.	.	.
4BBB-/	.	4a-\	.	4f\	.	.	.	.	.
4BBB-/	.	8g\L	.	8e-\L	.	.	.	.	.
.	.	8f\J	.	8d\J	.	.	.	.	.
=44	=44	=44	=44	=44	=44	=44	=44	=44	=44
4EEE-/	.	4e-\	.	4e-\	.	1r	.	1r	.
4EEE-/	.	4e-\	.	4r	.	.	.	.	.
4EEE-/	.	4e-\	.	2r	.	.	.	.	.
4EEE-/	.	4e-\	.	.	.	.	.	.	.
!	!	!	!	!	!	!LO:LB:g=original	!	!	!
=45	=45	=45	=45	=45	=45	=45	=45	=45	=45
!	!	!	!LO:HP:a	!	!LO:HP:a	!	!	!	!
1EEE-/	.	1e-/	<[	1G\	<[	8G/L	.	1dd-X\	<[
.	.	.	.	.	.	8B-/	.	.	.
!	!	!	!	!	!	!	!LO:HP:a	!	!
.	.	.	.	.	.	8E-/	<	.	.
.	.	.	.	.	.	8B-/J	.	.	.
.	.	.	.	.	.	8G/L	.	.	.
.	.	.	.	.	.	8B-/	.	.	.
.	.	.	.	.	.	8E-/	[	.	.
.	.	.	.	.	.	8B-/J	.	.	.
=46	=46	=46	=46	=46	=46	=46	=46	=46	=46
!	!	!	!LO:DY:a:t=fo	!	!	!	!	!	!
4EEE-/	.	4e-\	f	4A-\	.	8A-/L	.	4cc\	.
.	.	.	.	.	.	8c/	.	.	.
!	!	!	!	!	!	!	!LO:HP:a	!	!
4EEE-/	.	4e-\	.	4AA-/	.	8E-/	<	4cc\	.
.	.	.	.	.	.	8c/J	.	.	.
2r	.	2r	.	2r	.	8A-/L	.	4r	.
.	.	.	.	.	.	8c/	.	.	.
.	.	.	.	.	.	8E-/	[	4cc\	.
.	.	.	.	.	.	8c/J	.	.	.
!	!	!	!	!LO:LB:g=original	!	!	!	!LO:LB:g=original	!
=47	=47	=47	=47	=47	=47	=47	=47	=47	=47
!	!	!	!LO:HP:a	!LO:SIC:v:s=F	!	!	!	!	!
1BBB-/	.	1f/	<[	2G\	.	8A-/L	.	2aa-\	.
.	.	.	.	.	.	8B-/	.	.	.
!	!	!	!	!	!	!	!LO:HP:a	!	!
.	.	.	.	.	.	8F/	<	.	.
.	.	.	.	.	.	8B-/J	.	.	.
.	.	.	.	2A-\	.	8A-/L	.	2ff\	.
.	.	.	.	.	.	8B-/	.	.	.
.	.	.	.	.	.	8F/	[	.	.
.	.	.	.	.	.	8B-/J	.	.	.
!LO:LB:g=original	!	!LO:LB:g=original	!	!	!	!	!	!	!
=48	=48	=48	=48	=48	=48	=48	=48	=48	=48
4EE-/	.	4e-\	.	4G\	.	8G/L	.	8ee-\L	.
.	.	.	.	.	.	8B-/	.	8gg\J	.
!	!	!	!	!	!	!	!LO:HP:a	!	!
4EEE-/	.	4e-\	.	4EE-/	.	8E-/	<	4ee-\	.
.	.	.	.	.	.	8B-/J	.	.	.
*	*	*	*	*	*	*rep	*	*	*
2r	.	2r	.	2r	.	8G/L	.	2r	.
.	.	.	.	.	.	8B-/	.	.	.
.	.	.	.	.	.	8E-/	[	.	.
.	.	.	.	.	.	8BB-/J	.	.	.
*	*	*	*	*	*	*Xrep	*	*	*
=49	=49	=49	=49	=49	=49	=49	=49	=49	=49
!	!	!	!LO:HP:a	!	!LO:HP:a	!	!	!	!
1EEE-/	.	1e-/	<[	1G\	<[	8G/L	.	1dd-X\	<[
.	.	.	.	.	.	8B-/	.	.	.
.	.	.	.	.	.	8E-/	.	.	.
.	.	.	.	.	.	8B-/J	.	.	.
*	*	*	*	*	*	*rep	*	*	*
.	.	.	.	.	.	8G/L	.	.	.
.	.	.	.	.	.	8B-/	.	.	.
.	.	.	.	.	.	8E-/	.	.	.
.	.	.	.	.	.	8B-/J	.	.	.
*	*	*	*	*	*	*Xrep	*	*	*
=50	=50	=50	=50	=50	=50	=50	=50	=50	=50
4EEE-/	.	4e-\	.	4A-\	.	8A-/L	.	4cc\	.
.	.	.	.	.	.	8c/	.	.	.
4EEE-/	.	4e-\	.	4AA-/	.	8E-/	.	4cc\	.
.	.	.	.	.	.	8c/J	.	.	.
*	*	*	*	*	*	*rep	*	*	*
2r	.	2r	.	2r	.	8A-/L	.	4r	.
.	.	.	.	.	.	8c/	.	.	.
.	.	.	.	.	.	8E-/	.	4cc\	.
.	.	.	.	.	.	8c/J	.	.	.
*	*	*	*	*	*	*Xrep	*	*	*
=51	=51	=51	=51	=51	=51	=51	=51	=51	=51
!	!	!LO:TX:a:t=Solo	!	!	!	!	!	!	!
1BBB-/	.	1f/	.	2F\	.	8A-/L	.	2aa-\	.
.	.	.	.	.	.	8B-/	.	.	.
.	.	.	.	.	.	8F/	.	.	.
.	.	.	.	.	.	8B-/J	.	.	.
*	*	*	*	*	*	*rep	*	*	*
.	.	.	.	2A-\	.	8A-/L	.	2ff\	.
.	.	.	.	.	.	8B-/	.	.	.
.	.	.	.	.	.	8F/	.	.	.
.	.	.	.	.	.	8B-/J	.	.	.
*	*	*	*	*	*	*Xrep	*	*	*
*clefG2	*	*	*	*	*	*	*	*	*
=52	=52	=52	=52	=52	=52	=52	=52	=52	=52
!LO:TX:t=P:problem:mixed beam	!	!	!	!	!	!	!	!	!
8E-/L	.	4g\	.	4G\	.	4G/	.	4ee-\	.
8g\	.	.	.	.	.	.	.	.	.
!	!	!	!	!	!	!	!	!	!LO:DY:t=p&colon;
8b-\	.	2g\	.	4e-\	.	4B-/	.	4g/	p
8g\J	.	.	.	.	.	.	.	.	.
8e-/L	.	.	.	4e-\	.	4B-/	.	4g/	.
8B-/	.	.	.	.	.	.	.	.	.
8G/	.	4e-\	.	4e-\	.	8B-/L	.	4g/	.
8E-/J	.	.	.	.	.	8e-/J	.	.	.
=53	=53	=53	=53	=53	=53	=53	=53	=53	=53
4BB-/	.	8d\L	.	4d\	.	4f/	.	4a-/	.
.	.	8f\	.	.	.	.	.	.	.
4B-/	.	8b-'\	.	4d\	.	4f/	.	4a-/	.
.	.	8b-'\J	.	.	.	.	.	.	.
4BB-/	.	(8b-\L	.	4d\	.	4f/	.	4a-/	.
.	.	8a-\	.	.	.	.	.	.	.
4B-/	.	8g\	.	4d\	.	8f/L	.	4a-/	.
.	.	8f\J)	.	.	.	8d/J	.	.	.
!	!	!	!	!	!	!LO:LB:g=original	!	!LO:PB:g=original	!
=54	=54	=54	=54	=54	=54	=54	=54	=54	=54
8e-\L	.	4g\	.	4e-\	.	4B-/	.	4g/	.
8g\	.	.	.	.	.	.	.	.	.
8b-\	.	2b-\	.	4e-\	.	4B-/	.	4g/	.
8g\J	.	.	.	.	.	.	.	.	.
8e-/L	.	.	.	4e-\	.	4B-/	.	4g/	.
8B-/	.	.	.	.	.	.	.	.	.
8G/	.	4g\	.	4e-\	.	8B-/L	.	4g/	.
8E-/J	.	.	.	.	.	8e-/J	.	.	.
!LO:LB:g=original	!	!	!	!LO:LB:g=original	!	!	!	!	!
=55	=55	=55	=55	=55	=55	=55	=55	=55	=55
4BB-/	.	8d\L	.	4d\	.	4f/	.	4a-/	.
.	.	8f\	.	.	.	.	.	.	.
4B-/	.	8b-\	.	4d\	.	4f/	.	4a-/	.
.	.	8b-\J	.	.	.	.	.	.	.
!	!	!LO:LB:g=original	!	!	!	!	!	!	!
4BB-/	.	8b-\L	.	4d\	.	4f/	.	4a-/	.
.	.	8a-\	.	.	.	.	.	.	.
4B-/	.	8g\	.	4d\	.	8f/L	.	4a-/	.
.	.	8f\J	.	.	.	8d/J	.	.	.
*clefF4	*	*	*	*	*	*	*	*	*
=56	=56	=56	=56	=56	=56	=56	=56	=56	=56
!LO:TX:t=P:problem:w t. 56-62 dźwięki brzmią o oktawę wyżej, inna transpozycja waltornii w kluczu basowym	!	!	!	!	!	!	!	!	!
8EEE-/L	.	4g\	.	4e-\	.	4B-/	.	4g/	.
16EE-/L	.	.	.	.	.	.	.	.	.
16DD/JJ	.	.	.	.	.	.	.	.	.
8EE-\L	.	2g\	.	4r	.	4r	.	4r	.
8GG\J	.	.	.	.	.	.	.	.	.
8EE-\L	.	.	.	4E-\	.	4B-/	.	4g/	.
8GG\	.	.	.	.	.	.	.	.	.
8BB-\	.	4g\	.	4r	.	4r	.	4r	.
8GG\J	.	.	.	.	.	.	.	.	.
=57	=57	=57	=57	=57	=57	=57	=57	=57	=57
8EEE-/L	.	4ee-\	.	4e-\	.	4B-/	.	4g/	.
16EE-/L	.	.	.	.	.	.	.	.	.
16DD/JJ	.	.	.	.	.	.	.	.	.
8EE-\L	.	2ee-\	.	4r	.	4r	.	4r	.
8GG\J	.	.	.	.	.	.	.	.	.
8EE-\L	.	.	.	4E-\	.	4B-/	.	4g/	.
8GG\	.	.	.	.	.	.	.	.	.
8BB-\	.	4g\	.	4r	.	4r	.	4r	.
8E-\J	.	.	.	.	.	.	.	.	.
=58	=58	=58	=58	=58	=58	=58	=58	=58	=58
2BB-\	.	8f\L	.	1D\	.	1f/	.	1a-/	.
.	.	8f\	.	.	.	.	.	.	.
.	.	8f\	.	.	.	.	.	.	.
.	.	8f\J	.	.	.	.	.	.	.
4BBB-/	.	8b-\L	.	.	.	.	.	.	.
.	.	8a-\	.	.	.	.	.	.	.
4BB-\	.	8g\	.	.	.	.	.	.	.
.	.	8f\J	.	.	.	.	.	.	.
=59	=59	=59	=59	=59	=59	=59	=59	=59	=59
2EE-/	.	8g\L	.	4E-\	.	4e-/	.	4g/	.
.	.	8e-\	.	.	.	.	.	.	.
.	.	8f\	.	2e-\	.	2f/	.	2ee-\	.
.	.	8g\J	.	.	.	.	.	.	.
4EEE-/	.	8a-\L	.	.	.	.	.	.	.
.	.	8b-\	.	.	.	.	.	.	.
4EE-/	.	8cc\	.	4E-\	.	4g/	.	4ee-\	.
.	.	8dd\J	.	.	.	.	.	.	.
!LO:LB:g=original	!	!	!	!	!	!LO:PB:g=original	!	!	!
=60	=60	=60	=60	=60	=60	=60	=60	=60	=60
!LO:N:vis=8	!	!	!	!	!	!	!	!	!
4EEE-/	.	4ee-\	.	4E-\	.	4g/	.	4ee-\	.
8r	.	8r	.	8r	.	8r	.	4bb-\	.
8BB-\	.	8b-\	.	8B-\	.	8b-/	.	.	.
4GG\	.	4g\	.	4G\	.	4g/	.	4gg\	.
4EE-\	.	4e-\	.	4E-\	.	4e-/	.	4ee-\	.
!	!	!LO:LB:g=original	!	!	!	!	!	!LO:LB:g=original	!
=61	=61	=61	=61	=61	=61	=61	=61	=61	=61
4BBB-/	.	4f\	.	2BB-/	.	4.b-\	.	4.dd\	.
4r	.	4r	.	.	.	.	.	.	.
.	.	.	.	.	.	8cc\	.	8ee-\	.
4BBB-/	.	4f\	.	2B-\	.	4.dd\	.	4.ff\	.
4r	.	4r	.	.	.	.	.	.	.
.	.	.	.	.	.	8ee-\	.	8gg\	.
!	!	!	!	!LO:PB:g=original	!	!	!	!	!
=62	=62	=62	=62	=62	=62	=62	=62	=62	=62
1BBB-/;	.	1f/;	.	1BB-/;	.	1ff\;	.	1aa-X\;<	.
*clefG2	*	*	*	*	*	*	*	*	*
=63	=63	=63	=63	=63	=63	=63	=63	=63	=63
!	!	!	!	!	!	!	!LO:DY:rj:t=fo&colon;	!	!LO:DY:t=fo
2G/	.	2e-\	.	4EE-/	.	2g/	f	2ee-\	f
.	.	.	.	4E-\	.	.	.	.	.
2G/	.	2e-\	.	4BB-/	.	2g/	.	2ee-\	.
.	.	.	.	4GG/	.	.	.	.	.
=64	=64	=64	=64	=64	=64	=64	=64	=64	=64
2G/	.	2e-\	.	2EE-/	.	2g/	.	4ee-\	.
.	.	.	.	.	.	.	.	4r	.
2r	.	2r	.	2r	.	4r	.	4r	.
.	.	.	.	.	.	8gg\L	.	8bb-\L	p
.	.	.	.	.	.	8ff\J	.	8aa-\J	.
=65	=65	=65	=65	=65	=65	=65	=65	=65	=65
0r	.	0r	.	4r	.	8ff\L	.	4gg\	.
.	.	.	.	.	.	8ee-\J	.	.	.
.	.	.	.	4E-\	.	2ee-\	.	2gg\	.
.	.	.	.	4EE-/	.	.	.	.	.
.	.	.	.	4r	.	8aa-\L	.	8.ccc\L	.
.	.	.	.	.	.	8gg\J	.	.	.
.	.	.	.	.	.	.	.	16bb-\Jk	.
!	!	!	!	!	!	!LO:LB:g=original	!	!	!
=66	=66	=66	=66	=66	=66	=66	=66	=66	=66
.	.	.	.	4r	.	8gg\L	.	8bb-\L	.
.	.	.	.	.	.	8ff\J	.	8aa-\J	.
.	.	.	.	4B-\	.	2ff\	.	2aa-\	.
.	.	.	.	4BB-/	.	.	.	.	.
.	.	.	.	4r	.	8dd\L	.	8ff\L	.
.	.	.	.	.	.	8ee-\J	.	8gg\J	.
!	!	!	!	!	!	!	!	!LO:LB:g=original	!
=67	=67	=67	=67	=67	=67	=67	=67	=67	=67
1B-/	.	1f/	.	1D\	.	8ff\L	.	8aa-\L	.
.	.	.	.	.	.	8ee-\	.	8gg\	.
.	.	.	.	.	.	8dd\	.	8ff\	.
.	.	.	.	.	.	8cc\J	.	8ee-\J	.
.	.	.	.	.	.	8b-/L	.	8dd\L	.
.	.	.	.	.	.	8a-/	.	8cc\	.
.	.	.	.	.	.	8g/	.	8b-\	.
.	.	.	.	.	.	8f/J	.	8a-\J	.
=68	=68	=68	=68	=68	=68	=68	=68	=68	=68
4e-\	.	2f\	.	2D\	.	(2f/	.	2a-/	.
4r	.	.	.	.	.	.	.	.	.
2r	.	4g\	.	4E-\	.	4e-/)	.	4g/	.
.	.	4r	.	4r	.	8gg\L	.	8bb-\L	.
.	.	.	.	.	.	8ff\J	.	8aa-\J	.
!LO:LB:g=original	!	!	!	!	!	!	!	!	!
=69	=69	=69	=69	=69	=69	=69	=69	=69	=69
0r	.	0r	.	4r	.	8ff\L	.	8aa-\L	.
.	.	.	.	.	.	8ee-\J	.	8gg\J	.
.	.	.	.	4E-\	.	2ee-\	.	2gg\	.
.	.	.	.	4EE-/	.	.	.	.	.
.	.	.	.	4r	.	8aa-\L	.	8ccc\L	.
.	.	.	.	.	.	8gg\J	.	8bb-\J	.
!	!	!	!	!LO:LB:g=original	!	!	!	!	!
=70	=70	=70	=70	=70	=70	=70	=70	=70	=70
.	.	.	.	4r	.	8gg\L	.	8bb-\L	.
.	.	.	.	.	.	8ff\J	.	8aa-\J	.
.	.	.	.	4B-\	.	2ff\	.	4aa-\	.
.	.	.	.	4BB-/	.	.	.	8aa-\L	.
.	.	.	.	.	.	.	.	8aa-\	.
.	.	.	.	4r	.	8dd\L	.	8gg\	.
.	.	.	.	.	.	16ee-\L	.	8ff\J	.
.	.	.	.	.	.	16ff\JJ	.	.	.
!	!	!	!	!	!	!LO:LB:g=original	!	!	!
=71	=71	=71	=71	=71	=71	=71	=71	=71	=71
1E-/	.	1e-/	.	4E-\	.	2ee-\	.	8gg\L	.
.	.	.	.	.	.	.	.	8ff\	.
.	.	.	.	4G\	.	.	.	8gg\	.
.	.	.	.	.	.	.	.	8bb-\J	.
!	!	!	!	!	!	!	!	!LO:LB:g=original	!
.	.	.	.	4A-\	.	4ee-\	.	8bb-\L	.
.	.	.	.	.	.	.	.	8ccc\	.
.	.	.	.	4An\	.	4ee-\	.	8aa-\	.
.	.	.	.	.	.	.	.	8gg\J	.
=72	=72	=72	=72	=72	=72	=72	=72	=72	=72
!	!	!	!	!	!	!LO:TX:t=P:problem:mixed beam	!	!	!
4BB-/	.	4f\	.	4B-\	.	8dd\L	.	4ff\	.
!	!	!	!	!	!	!	!LO:DY:a:t=p&colon;	!	!
.	.	.	.	.	.	8B-/	p	.	.
4r	.	4r	.	4r	.	8B-/	.	4r	.
.	.	.	.	.	.	8B-/J	.	.	.
*	*	*	*	*	*	*tremolo	*	*	*
2r	.	2r	.	4r	.	8B-/L	.	4r	.
.	.	.	.	.	.	8B-/	.	.	.
!	!	!	!	!LO:N:vis=8	!	!	!	!	!
.	.	.	.	4e-\	.	8B-/	.	8gg\	p
.	.	.	.	.	.	8B-/J	.	8r	.
=73	=73	=73	=73	=73	=73	=73	=73	=73	=73
1r	.	1r	.	8d\	.	8B-/L	.	8ff\	.
.	.	.	.	8r	.	8B-/	.	8r	.
.	.	.	.	8e-\	.	8B-/	.	8gg\	.
.	.	.	.	8r	.	8B-/J	.	8r	.
.	.	.	.	8f\	.	8B-/L	.	8aa-\	.
.	.	.	.	8r	.	8B-/	.	8r	.
.	.	.	.	8d\	.	8B-/	.	8ff\	.
.	.	.	.	8r	.	8B-/J	.	8r	.
!	!	!LO:LB:g=original	!	!	!	!	!	!	!
=74	=74	=74	=74	=74	=74	=74	=74	=74	=74
!	!	!	!	!	!	!	!LO:DY:a:t=fp&colon;	!	!LO:DY:t=f&colon;
8g\	.	8b-\	.	8g\	.	8B-/L	fp	8bb-\	f
8r	.	8r	.	8r	.	8B-/	.	8r	.
8e-\	.	8g\	.	8e-\	.	8B-/	.	8gg\	.
8r	.	8r	.	8r	.	8B-/J	.	8r	.
2r	.	2r	.	4r	.	8B-/L	.	4r	.
.	.	.	.	.	.	8B-/	.	.	.
.	.	.	.	8e-\	.	8B-/	.	8gg\	p
.	.	.	.	8r	.	8B-/J	.	8r	.
!	!	!	!	!LO:LB:g=original	!	!	!	!LO:LB:g=original	!
=75	=75	=75	=75	=75	=75	=75	=75	=75	=75
!LO:TX:t=P:problem:t.75-76 zapisane jako repetycja	!	!	!	!	!	!	!	!	!
1ryy	.	1r	.	8d\	.	8B-/L	.	8ff\	.
.	.	.	.	8r	.	8B-/	.	8r	.
.	.	.	.	8e-\	.	8B-/	.	8gg\	.
.	.	.	.	8r	.	8B-/J	.	8r	.
.	.	.	.	8f\	.	8B-/L	.	8aa-\	.
.	.	.	.	8r	.	8B-/	.	8r	.
.	.	.	.	8d\	.	8B-/	.	8ff\	.
.	.	.	.	8r	.	8B-/J	.	8r	.
=76	=76	=76	=76	=76	=76	=76	=76	=76	=76
!	!	!LO:TX:t=P:problem:t. 76-77 zapisane jako repetycja	!	!	!	!	!LO:DY:a:t=fp&colon;	!	!
8g\yy	.	8b-\yy	.	8g\	.	8B-/L	fp	8bb-\	f
8ryy	.	8ryy	.	8r	.	8B-/	.	8r	.
8e-\yy	.	8g\yy	.	8e-\	.	8B-/	.	8gg\	.
8ryy	.	8ryy	.	8r	.	8B-/J	.	8r	.
2ryy	.	2ryy	.	4r	.	8B-/L	.	4r	.
.	.	.	.	.	.	8B-/	.	.	.
.	.	.	.	8e-\	.	8B-/	.	8gg\	p
.	.	.	.	8r	.	8B-/J	.	8r	.
=77	=77	=77	=77	=77	=77	=77	=77	=77	=77
1r	.	1ryy	.	8d\	.	8B-/L	.	8ff\	.
.	.	.	.	8r	.	8B-/	.	8r	.
.	.	.	.	8e-\	.	8B-/	.	8gg\	.
.	.	.	.	8r	.	8B-/J	.	8r	.
.	.	.	.	8f\	.	8B-/L	.	8aa-\	.
.	.	.	.	8r	.	8B-/	.	8r	.
.	.	.	.	8d\	.	8B-/	.	8ff\	.
!	!	!	!	!	!LO:DY:t=fo&colon;	!	!	!	!
.	.	.	.	8r	f	8B-/J	.	8r	.
!	!	!	!	!	!	!LO:LB:g=original	!	!	!
=78	=78	=78	=78	=78	=78	=78	=78	=78	=78
*	*	*	*	*tremolo	*	*	*	*	*
!	!	!	!	!	!	!	!LO:DY:t=for	!	!LO:DY:t=fo
1G/	.	1e-/	.	8E-/L	.	8g/L	f	2bb-\	f
.	.	.	.	8BB-/	.	8g/	.	.	.
.	.	.	.	8E-/	.	8g/	.	.	.
.	.	.	.	8BB-/J	.	8g/J	.	.	.
!	!	!	!	!	!	!	!	!LO:LB:g=original	!
.	.	.	.	8E-/L	.	8g/L	.	8bb-\L	.
.	.	.	.	8BB-/	.	8g/	.	8gg\	.
.	.	.	.	8E-/	.	8g/	.	8ff\	.
.	.	.	.	8BB-/J	.	8g/J	.	8ee-\J	.
!	!	!	!	!LO:LB:g=original	!	!	!	!	!
=79	=79	=79	=79	=79	=79	=79	=79	=79	=79
1B-/	.	1f/	.	8D/L	.	8f/L	.	8dd\L	.
.	.	.	.	8BB-/	.	8f/	.	8ff\J	.
.	.	.	.	8D/	.	8f/	.	2aa-\	.
.	.	.	.	8BB-/J	.	8f/J	.	.	.
.	.	.	.	8D/L	.	8f/L	.	.	.
.	.	.	.	8BB-/	.	8f/	.	.	.
.	.	.	.	8D/	.	8f/	.	8gg\L	.
.	.	.	.	8BB-/J	.	8f/J	.	8ff\J	.
=80	=80	=80	=80	=80	=80	=80	=80	=80	=80
1e-/	.	1g/	.	8E-/L	.	8g/L	.	8gg\L	.
.	.	.	.	8BB-/	.	8g/	.	8ee-\	.
.	.	.	.	8E-/	.	8g/	.	8gg\	.
.	.	.	.	8BB-/J	.	8g/J	.	8bb-\J	.
.	.	.	.	8E-/L	.	8g/L	.	8bb-\L	.
.	.	.	.	8BB-/	.	8g/	.	8gg\	.
.	.	.	.	8E-/	.	8g/	.	8ff\	.
.	.	.	.	8BB-/J	.	8g/J	.	8ee-\J	.
=81	=81	=81	=81	=81	=81	=81	=81	=81	=81
1B-/	.	1f/	.	8D/L	.	8f/L	.	8dd\L	.
.	.	.	.	8BB-/	.	8f/	.	8ff\J	.
.	.	.	.	8D/	.	8f/	.	2aa-\	.
.	.	.	.	8BB-/J	.	8f/J	.	.	.
.	.	.	.	8D/L	.	8f/L	.	.	.
.	.	.	.	8BB-/	.	8f/	.	.	.
.	.	.	.	8D/	.	8f/	.	8gg\L	.
.	.	.	.	8BB-/J	.	8f/J	.	8ff\J	.
*	*	*	*	*Xtremolo	*	*Xtremolo	*	*	*
=82	=82	=82	=82	=82	=82	=82	=82	=82	=82
4G/	.	4e-\	.	4E-\	.	4e-/	.	8gg\L	.
.	.	.	.	.	.	.	.	8b-\	.
4r	.	4r	.	4r	.	4r	.	8cc\	.
.	.	.	.	.	.	.	.	8dd\J	.
!	!	!	!	!	!	!	!	!LO:LB:g=original	!
2r	.	2r	.	2r	.	2r	.	8ee-\L	.
.	.	.	.	.	.	.	.	8ff\	.
.	.	.	.	.	.	.	.	8gg\	.
.	.	.	.	.	.	.	.	8aa-\J	.
=83	=83	=83	=83	=83	=83	=83	=83	=83	=83
*	*	*	*	*tremolo	*	*	*	*	*
1E-/	.	1e-/	.	8G\L	.	8d/L	.	2bb-\	.
.	.	.	.	8G\	.	8B-/	.	.	.
.	.	.	.	8G\	.	8d/	.	.	.
.	.	.	.	8G\J	.	8B-/J	.	.	.
.	.	.	.	8A-\L	.	8e-/L	.	8ccc\L	.
.	.	.	.	8A-\	.	8c/	.	8aa-\	.
.	.	.	.	8A-\	.	8e-/	.	8gg\	.
.	.	.	.	8A-\J	.	8c/J	.	8ff\J	.
!LO:LB:g=original	!	!	!	!	!	!	!	!	!
=84	=84	=84	=84	=84	=84	=84	=84	=84	=84
2e-\	.	2g\	.	8B-\L	.	8G/L	.	2ee-\	.
.	.	.	.	8B-\	.	8B-/	.	.	.
.	.	.	.	8B-\	.	8G/	.	.	.
.	.	.	.	8B-\J	.	8B-/J	.	.	.
*	*	*	*	*	*	*tremolo	*	*	*
2B-/	.	2f\	.	8BB-/L	.	8A-/L	.	2ffT\	.
.	.	.	.	8BB-/	.	8B-/	.	.	.
.	.	.	.	8BB-/	.	8A-/	.	.	.
.	.	.	.	8BB-/J	.	8B-/J	.	.	.
*	*	*	*	*Xtremolo	*	*Xtremolo	*	*	*
=85	=85	=85	=85	=85	=85	=85	=85	=85	=85
4G/	.	4e-\	.	4E-\	.	4G/	.	4ee-\	.
4r	.	4r	.	4r	.	4r	.	4r	.
4G/	.	4e-\	.	4EE-/	.	4g/	.	4ee-\	.
4G/	.	4e-\	.	4EE-/	.	4g/	.	4ee-\	.
=86	=86	=86	=86	=86	=86	=86	=86	=86	=86
2G/	.	4e-\	.	2EE-/	.	2g/	.	2ee-\	.
.	.	4r	.	.	.	.	.	.	.
!	!	!	!	!	!	!	!	!LO:TX:b:t=Volti	!
!LO:TX:b:t=50	!	!LO:TX:b:t=50	!	!LO:TX:b:t=50	!	!LO:TX:b:t=50	!	!LO:TX:b:t=50	!
2r	.	2r	.	2r	.	2r	.	2r	.
==	==	==	==	==	==	==	==	==	==
*-	*-	*-	*-	*-	*-	*-	*-	*-	*-
!!!system-decoration: [(s1,s2,s3,s4,s5)]
!!!RDF**kern: > = above
!!!RDF**kern: < = below
!!!ENC: Marcin Jachim
!!!END: 2021-06-16
!!!EED: Leszek Kubiak
!!!EST: 2021-06-21
